X:2
T:l'Homme \`a deux femmes #2
M:2/4
L:1/16
K:D
|: agfa- aafa | gece Aece | agfa- aafa | gecA Bd3 :|
|: ABcd  ea2g | fecd efec | ABcd  ea2g | fecA [1 Bd2d :|[2 Bd3 |]
%  ABcd  ea2g | fecd efec | ABcd  ea2g | fecA B d3 :|
